src/rss/rss-black.svg

<svg xmlns="http://www.w3.org/2000/svg" width="128" height="128"><path d="M42.133 85.839c1.938 1.935 3.116 4.561 3.124 7.484-.007 2.918-1.186 5.544-3.116 7.472l-.007.004c-1.934 1.925-4.576 3.102-7.514 3.102-2.934 0-5.57-1.18-7.503-3.106-1.929-1.927-3.117-4.55-3.117-7.471 0-2.924 1.188-5.556 3.116-7.487v.003c1.934-1.927 4.57-3.113 7.503-3.113 2.938-.001 5.577 1.188 7.514 3.112zm0-.003v.003h.004l-.004-.003zm-15.017 14.963v-.004h-.004l.004.004zm-3.107-49.595v15.276c9.972.006 19.404 3.924 26.463 10.993 7.057 7.047 10.958 16.493 10.974 26.5h.005v.027h15.339c-.012-14.551-5.927-27.732-15.49-37.301-9.564-9.568-22.739-15.487-37.291-15.495zm.027-27.204v15.268c35.648.026 64.627 29.05 64.651 64.732h15.313c-.011-22.053-8.974-42.034-23.46-56.53-14.491-14.491-34.458-23.46-56.504-23.47z"/></svg>

<?xml version="1.0" encoding="UTF-8" standalone="no"?>
<!-- Created with Inkscape (http://www.inkscape.org/) -->

<svg
   xmlns:dc="http://purl.org/dc/elements/1.1/"
   xmlns:cc="http://creativecommons.org/ns#"
   xmlns:rdf="http://www.w3.org/1999/02/22-rdf-syntax-ns#"
   xmlns:svg="http://www.w3.org/2000/svg"
   xmlns="http://www.w3.org/2000/svg"
   xmlns:inkscape="http://www.inkscape.org/namespaces/inkscape"
   version="1.1"
   width="128"
   height="128"
   id="svg2">
  <metadata
     id="metadata10">
    <rdf:RDF>
      <cc:Work
         rdf:about="">
        <dc:format>image/svg+xml</dc:format>
        <dc:type
           rdf:resource="http://purl.org/dc/dcmitype/StillImage" />
      </cc:Work>
    </rdf:RDF>
  </metadata>
  <defs
     id="defs8" />
  <path
     d="m 42.133,85.839 c 1.938,1.935 3.116,4.561 3.124,7.484 -0.007,2.918 -1.186,5.544 -3.116,7.472 l -0.007,0.004 c -1.934,1.925 -4.576,3.102 -7.514,3.102 -2.934,0 -5.57,-1.18 -7.503,-3.106 C 25.188,98.868 24,96.245 24,93.324 24,90.4 25.188,87.768 27.116,85.837 v 0.003 c 1.934,-1.927 4.57,-3.113 7.503,-3.113 2.938,-0.001 5.577,1.188 7.514,3.112 z m 0,-0.003 v 0.003 h 0.004 l -0.004,-0.003 z m -15.017,14.963 v -0.004 h -0.004 l 0.004,0.004 z M 24.009,51.204 V 66.48 c 9.972,0.006 19.404,3.924 26.463,10.993 7.057,7.047 10.958,16.493 10.974,26.5 h 0.005 V 104 H 76.79 C 76.778,89.449 70.863,76.268 61.3,66.699 51.736,57.131 38.561,51.212 24.009,51.204 z M 24.036,24 V 39.268 C 59.684,39.294 88.663,68.318 88.687,104 H 104 C 103.989,81.947 95.026,61.966 80.54,47.47 66.049,32.979 46.082,24.01 24.036,24 z"
     inkscape:connector-curvature="0"
     id="path4" />
</svg>
